images/sale__8.svg

<svg width="80" height="80" viewBox="0 0 80 80" fill="none" xmlns="http://www.w3.org/2000/svg">
<path d="M80 40C80 62.0914 62.0914 80 40 80C17.9086 80 0 62.0914 0 40C0 17.9086 17.9086 0 40 0C62.0914 0 80 17.9086 80 40Z" fill="white"/>
<path d="M61.405 28.2422H22.9663C19.7463 28.2422 16.8137 29.5133 14.715 31.68C12.5875 33.7889 11.2937 36.7356 11.2937 39.9711C11.2937 43.2067 12.5587 46.0956 14.715 48.2622C16.8137 50.4 19.7463 51.7 22.9663 51.7H65.4875C66.465 51.7 67.3275 51.2956 67.9313 50.6889C68.5638 50.0533 68.9375 49.1867 68.9375 48.2333C68.9375 47.28 68.5638 46.4133 67.9313 45.7778C67.2988 45.1422 66.4362 44.7667 65.4875 44.7667H61.3763H22.9663C21.7013 44.7667 20.5225 44.2756 19.66 43.38C18.7975 42.4844 18.28 41.3867 18.28 40.0578C18.28 38.8156 18.7688 37.66 19.66 36.7356C20.5225 35.8689 21.6438 35.3489 22.9663 35.3489H61.3763C61.75 35.3489 61.9513 35.6378 61.9513 35.9267C61.9513 36.3022 61.6638 36.5044 61.3763 36.5044H22.9663C21.9888 36.5044 21.1263 36.88 20.5225 37.5156C19.8612 38.18 19.5163 39.1044 19.5163 39.9711C19.5163 40.9533 19.9188 41.82 20.5225 42.4267C21.155 43.0622 22.0175 43.4378 22.9663 43.4378H61.3763C63.475 43.4378 65.3438 42.5711 66.7238 41.2133C68.1038 39.8267 68.9375 37.9489 68.9375 35.84C68.9375 33.8467 68.1613 31.8822 66.7238 30.4667C65.3725 29.08 63.4175 28.2422 61.405 28.2422ZM22.88 27H61.3187C62.7562 27 64.0788 27.3756 65.2863 27.9533C65.6888 28.1844 66.1488 28.4444 66.5225 28.7044C66.925 28.9933 67.385 29.4267 67.5288 29.6C69.1388 31.2178 70.1163 33.4133 70.1163 35.84C70.1163 38.2089 69.1675 40.4044 67.5288 42.0511C67.0113 42.5711 66.4075 43.0622 65.7175 43.4378C66.8675 43.5244 67.9313 44.0156 68.765 44.8244C69.6275 45.6911 70.145 46.8178 70.145 48.1467C70.145 49.3889 69.6563 50.5444 68.765 51.4689C67.9025 52.3356 66.7813 52.8556 65.4588 52.8556L22.8512 52.8267C19.2863 52.8267 16.0663 51.3533 13.795 49.0133C11.4375 46.6444 10 43.4089 10 39.9133C10 36.3311 11.4663 33.0956 13.795 30.8133C14.4275 30.1489 15.1463 29.5711 15.8938 29.08C17.9638 27.8089 20.4075 27 22.88 27Z" fill="#010066"/>
</svg>

<svg width="80" height="80" fill="none" xmlns="http://www.w3.org/2000/svg"><path d="M80 40c0 22.091-17.909 40-40 40S0 62.091 0 40 17.909 0 40 0s40 17.909 40 40Z" fill="#fff"/><path d="M61.405 28.242H22.966c-3.22 0-6.152 1.271-8.251 3.438-2.127 2.109-3.421 5.056-3.421 8.291 0 3.236 1.265 6.125 3.421 8.291a11.524 11.524 0 0 0 8.251 3.438h42.521a3.443 3.443 0 0 0 3.45-3.467c0-.953-.373-1.82-1.006-2.455a3.424 3.424 0 0 0-2.444-1.011H22.968a4.55 4.55 0 0 1-3.307-1.387c-.863-.896-1.38-1.993-1.38-3.322 0-1.242.489-2.398 1.38-3.322.863-.867 1.984-1.387 3.306-1.387h38.41c.374 0 .575.289.575.578a.56.56 0 0 1-.575.577h-38.41c-.977 0-1.84.376-2.444 1.012a3.537 3.537 0 0 0-1.006 2.455c0 .982.403 1.849 1.007 2.456a3.425 3.425 0 0 0 2.443 1.01h38.41c2.099 0 3.968-.866 5.348-2.224a7.546 7.546 0 0 0 2.213-5.373c0-1.993-.776-3.958-2.213-5.373-1.352-1.387-3.307-2.225-5.319-2.225ZM22.88 27h38.439c1.437 0 2.76.376 3.967.953.403.231.863.491 1.236.751.403.29.863.723 1.007.896a8.8 8.8 0 0 1 2.587 6.24c0 2.369-.948 4.564-2.587 6.211a7.94 7.94 0 0 1-1.811 1.387 4.888 4.888 0 0 1 3.047 1.386c.862.867 1.38 1.994 1.38 3.323 0 1.242-.489 2.397-1.38 3.322-.862.867-1.984 1.387-3.306 1.387l-42.608-.03a12.6 12.6 0 0 1-9.056-3.813C11.438 46.644 10 43.41 10 39.913a12.72 12.72 0 0 1 3.795-9.1 11.978 11.978 0 0 1 2.099-1.733c2.07-1.271 4.513-2.08 6.986-2.08Z" fill="#010066"/></svg>
